!!!SOCIAL_FUNCTION:	songs of medicine men's dance
!!!PDT:	1956
!!!OTL: No_25_Calusa_Corn_Dance_Song.krn
!!!LANG: Non-Tone
!!!LING_GROUP: Muskogean
!!!REG: Florida
**kern
*staff1
=1-
*clefF4
*k[b-e-a-]
*M3/4
2r
8E-\L
8E-\J
=2
2E-\
8E-\L
8E-\J
=3
4B-\
4B-\
(8.c\L
16B-\Jk)
=4
4B-\
8A-\L
8G\J
4G\
=5||
*M2/4
8G\L
8E-\J
[4E-\
=6
4E-\]
4B-\
=7||
*M3/4
4A-\
8.G\L
16E-\Jk
4E-\
=8||
*M2/4
8G\L
8E-\J
4E-\
=9
4r
8E-\L
8D\J
=10||
*M3/4
4E-\
4E-\
4E-\
=11
4A-\
8.G\L
16E-\Jk
4E-\
=12||
*M2/4
8G\L
8E-\J
4E-\
=13
4BB-/
8E-\L
8E-\J
=14||
*M3/4
4E-\
4E-\
8E-\L
8E-\J
=15
4B-\
4B-\
(8.c\L
16B-\Jk)
=16
8B-\L
8A-\J
4G\
4G\
=17
4A-\
8.G\L
16E-\Jk
4E-\
=18||
*M2/4
8G\L
8E-\J
4E-\
=19
4r
8E-\L
8D\J
=20||
*M3/4
4E-\
4E-\
4E-\
=21||
*M2/4
4A-\
8.G\L
16E-\Jk
=22
8E-\L
8B-\J
8B-\L
8B-\J
=23||
*M3/4
2B-\
8c\L
8B-\J
=24
8B-\L
8B-\J
4G\
8G\L
8G\J
=25
8G\L
8E-\J
4E-\
4r
=26
4B-\
8G\L
8G\J
4G\
=27||
*M2/4
8E-\L
8G\J
8G\L
8E-\J
=28
4E-\
4r
=29
8E-\L
8E-\J
8E-\L
8E-\J
=30
4E-\
8E-\L
8A-\J
=31
8A-\L
8A-\J
8G\
8r
=32
8E-\L
8G\J
8G\L
8E-\J
=33||
*M3/4
4E-\
4r
8E-\L
8D\J
=34
8E-\L
8E-\J
4E-\
8E-\L
8B-\J
=35
8B-\L
8B-\J
4B-\
8c\L
8B-\J
=36
8B-\L
8B-\J
4G\
8G\L
8G\J
=37||
*M2/4
8G\L
8E-\J
4E-\
=38||
*M3/4
8B-\L
8G\J
8G\L
8G\J
4G\
=39||
*M2/4
8E-\L
8G\J
8G\L
8E-\J
=40
4E-\
4BB-/
=41
12E-\L
12E-\
12E-\J
4E-\
=42
4c\
8B-\L
8B-\J
=43||
*M3/4
4B-\
2B-\
=44||
*M2/4
4c\
8B-\L
8B-\J
=45
4B-\
4G\
=46
4G\
4B-\
=47
4A-\
8.G\L
16E-\Jk
=48
4G\
4G\
=49||
*M3/4
8G\L
[8E-\J
4E-\]
4r
=50||
*M2/4
4E-\
8E-\L
8D\J
=51
4E-\
4E-\
=52
!!pagebreak:default
4G\
4B-\
=53
4A-\
8.G\L
16E-\Jk
=54
4G\
4G\
=55||
*M3/4
8G\L
8E-\J
4E-\
4r
=56||
*M2/4
4E-\
8E-\L
8E-\J
=57
4E-\
4E-\
=58
4B-\
8B-\L
8B-\J
=59
4B-\
4B-\
=60
4c\
8B-\L
8B-\J
=61
4B-\
4G\
=62
4G\
4B-\
=63
4A-\
8.G\L
16E-\Jk
=64
4G\
4G\
=65||
*M3/4
8G\L
8E-\J
4E-\
4r
=66||
*M2/4
4E-\
8E-\L
8E-\J
=67||
*M3/4
4E-\
4E-\
4E-\
=68
2B-\
4B-\
=69
2B-\
4c\
=70
2G\
8G\L
8G\J
=71
2G\
8A-\L
8G\J
=72
2G\
8.G\L
16E-\Jk
=73
4E-\
4r
4E-\
=74||
*M2/4
2G\
=75
8.G\L
16E-\Jk
8.E-/L
16BB-/Jk
=76||
*M3/4
2.E-\
=77
4E-\
4r
4BB-/
=78
2.E-\
=79||
*M2/4
[2E-\
=80
4E-\]
4E-\
=81||
*M3/4
2B-\
8B-\L
8G\J
=82
2G\
4B-\
=83
2G\
4G\
=84
2G\
8A-\L
8G\J
=85||
*M2/4
2G\
=86
8G\L
8E-\J
8E-\
16r
16BB-/
=87||
*M3/4
2.E-\
=88
4E-\
4r
4BB-/
=89
2.E-\
=90
2E-\
4r
==
*-
